X:360
T:Barley Raking
A:Wyresdale, Lancashire
B:E and J Winder, 1835-41
L:1/8
M:6/8
O:England
Z:Richard Robinson 
%%RRN:"a Reel or Jigg"
%%TUNEURL: http://www.leeds.ac.uk/music/Info/RRTuneBk/gettune/00000ebc.html
%%ID:00000ebc
K:D
D2F (ABA) | G2F E2F | D2c (TB2A) | B2c d2 :: \
e |\
d2e f2d | g2f  e2f  |! d2e f2e | (dcB) A2A |\
d2e f2d | g2f (efe) |  d2A B2d | A2F D2 :|
%%newpage
%page 22
